X:2045
T:Carval - Chaarjyn lhaih mee jeh dooiney aeg
C:Simpson Clucas, Castletown
O:Isle of Man
S:Traditional carol
Z:Clague collection
B:Kiaull Vannin #45 revised version
N:Revised version given. See also KV #312, Carvalyn Gailckagh, Moore et al., p.115
M:3/4 
L:1/4 
K:G 
G/A/ Bc|d2 c|BA G-|G3|G/A/ Bc|d>c B|(A3 |A3) |
ABc|d2G|GDE|D3 |DEF|A>G F|G3-|G3||
